X:1
T:[ID 8-91]
T:[ID 8-91]
T:Bezeichnung standardisiert: Anglaise Angl.
T:Urheber unbekannt Datum in der hier transkribierten schriftlichen Quelle: 1792
C:Urheber unbekannt
C:Datum in der hier transkribierten schriftlichen Quelle: 1792
L:1/8
M:3/8
K:D
V:1 treble 
V:1
 D/D/F/F/A/A/ | d/d/f/f/a/a/ | g/g/e/e/c/c/ | A/A/G/G/E/E/ | D/D/F/F/A/A/ | d/d/f/f/a/a/ | %6
 g/g/e/e/c/c/ | d3 :: F3 | A3 | GFG | F3 | FGA | AGF | F3 | E3 :: A3 | B3 | ABA | A3 | ABA | GFE | %22
 E3 | D3 :| %24

